!!!OTL: 17. Schloap, Kinneken, ֵ¿chloap!
!!!ARE: Europa, Mitteleuropa, Deutschland, Brandenburg
!!!SCT: K0017
!!!TXL: @@NDS
!!!YEM: Copyright 1995, estate of Helmut Schaffrath.
**kern	**text
*ICvox	*
*clefG2	*
*M2/4	*
*k[b-]	*
*F:	*
=1	=1
{4cc	Schloap,
16a	Kin-
16a	-neken,
8g	.
=2	=2
4f	ſchloap!
8r}	.
{8f	Din
=3	=3
8.cc	Voa-
16b-	-der
8a	höet
8g	de
=4	=4
4f	Schoap,
8r}	.
{16f	di-
16f	-ne
=5	=5
8a	Mo-
8g	-der
8a	ſet
8cc	in'n
=6	=6
8b-	Ro-
8a	-ſengoard'n,
4g}	.
=7	=7
{8a	ſpinnt
8g	dat
8a	beſ-
8cc	-te
=8	=8
8b-/	Si-
8a	-dengoarn.
4g}	.
=9	=9
{4cc	Schloap,
16a	Kinne-
16a	.
8g	-ken,
=10	=10
4f	ſchloap!
4r}	.
==	==
!!!AGN: Kinder -, Wiegen - Lied
!!!ONB: ESAC (Essen Associative Code) Database: KINDER
!!!AMT: simple duple
!!!AIN: vox
!!!EED: Helmut Schaffrath
!!!EEV: 1.0
!!!GTL: I. Wiegenlieder.
!!Brandenburgisch: Erk J. 5, 63. Text Simrock 47.
!!!URL-scan: https://archive.org/details/DeutschesKinderliedUndKinderspiel/page/4/mode/1up
!!!ENC: Anna Maria Matuszewska
!!!EEV: 2024/29/08
*-	*-
